build/img/logo-white-mobile.svg

<svg width="129" height="60" viewBox="0 0 129 60" fill="none" xmlns="http://www.w3.org/2000/svg">
<path fill-rule="evenodd" clip-rule="evenodd" d="M0 21.8862H129V0H0V21.8862ZM12.1665 17.6697C13.2983 18.6042 14.713 18.9085 16.1277 18.9085C16.5413 18.9085 16.9765 18.8868 17.3683 18.8433L18.3477 18.6477C18.6089 18.5825 18.8918 18.4956 19.153 18.4086C19.2727 18.3652 19.387 18.3217 19.5012 18.2782C19.6155 18.2348 19.7298 18.1913 19.8495 18.1478L19.9801 18.1043V15.7136H19.4577L19.4142 15.7571C19.338 15.8114 19.2564 15.8657 19.1748 15.9201C19.0932 15.9744 19.0116 16.0287 18.9354 16.0831C18.7395 16.2135 18.5436 16.3221 18.326 16.4308C18.113 16.5468 17.8656 16.6284 17.6297 16.7062C17.6004 16.7159 17.5713 16.7255 17.5424 16.7351C17.2377 16.822 16.9113 16.8655 16.5848 16.8655C16.2583 16.8655 15.9318 16.822 15.6271 16.7134C15.3007 16.6264 15.0177 16.496 14.7565 16.3004C14.4736 16.0831 14.2777 15.8005 14.1254 15.4745C13.9295 15.105 13.8642 14.6486 13.8642 14.2139C13.8642 13.801 13.9295 13.3663 14.1036 12.9968C14.2559 12.6708 14.4518 12.3883 14.713 12.1709C14.9742 11.9753 15.2571 11.8015 15.5618 11.6928C15.8883 11.6059 16.2365 11.5624 16.563 11.5624C16.8677 11.5624 17.1724 11.6059 17.4554 11.6928C17.7383 11.758 17.9995 11.8667 18.2389 11.9753C18.4783 12.084 18.696 12.2144 18.8918 12.3448C19.066 12.4535 19.2183 12.5622 19.3707 12.6708L19.436 12.7143H19.9801V10.3018L19.8495 10.2583C19.6319 10.1497 19.3707 10.0627 19.153 9.99753C18.8701 9.88886 18.6089 9.80192 18.326 9.73672C17.9995 9.67152 17.6513 9.60632 17.3248 9.58458C16.933 9.54112 16.5413 9.51938 16.1495 9.51938C14.713 9.51938 13.2765 9.84539 12.1665 10.78C11.1218 11.6928 10.6865 12.8664 10.6865 14.2139C10.6865 15.5832 11.1 16.8003 12.1665 17.6697ZM100.401 11.8449H102.578V18.7346H105.755V9.71499H97.441L97.4193 9.95406L97.4192 9.95464C97.3975 10.4978 97.3757 11.041 97.3757 11.5841C97.3648 11.7913 97.3539 12.004 97.343 12.2166C97.3321 12.4278 97.3213 12.6389 97.3104 12.8447C97.2904 13.2644 97.252 13.6657 97.2121 14.0824L97.2016 14.1922L97.2016 14.1924C97.1581 14.5183 97.1145 14.8443 97.0275 15.1485C96.9404 15.5615 96.7663 15.9744 96.4181 16.2135C96.331 16.2787 96.2004 16.3221 96.1134 16.3221C96.0962 16.3246 96.0794 16.327 96.0627 16.3295C95.9313 16.3485 95.8133 16.3656 95.6781 16.3656H95.5257H95.3951H95.0251V18.7129L95.2428 18.7346C95.3298 18.7455 95.4169 18.7509 95.504 18.7564C95.591 18.7618 95.6781 18.7672 95.7651 18.7781C95.8957 18.7781 96.0209 18.7835 96.146 18.789C96.2712 18.7944 96.3963 18.7998 96.5269 18.7998C96.8969 18.7998 97.2451 18.7346 97.6151 18.626C97.9416 18.5173 98.2681 18.3652 98.551 18.1478C98.7469 17.9957 98.921 17.8001 99.0734 17.6262C99.291 17.3437 99.4651 17.0176 99.6175 16.6916C99.8035 16.2789 99.911 15.8269 100.015 15.3916L100.031 15.3224C100.183 14.6704 100.249 14.0183 100.292 13.3663C100.314 13.0838 100.336 12.8012 100.358 12.5404C100.358 12.3013 100.379 12.0623 100.401 11.8449ZM86.4498 17.2784H89.8669L90.3892 18.7346H94.0022L90.0192 9.71499H86.3845L82.4015 18.7346H85.9274L86.4498 17.2784ZM88.1692 12.4752L89.1051 15.1268H87.2116L88.1692 12.4752ZM110.761 17.2784H114.178L114.701 18.7346H118.313L114.352 9.71499H110.696L106.713 18.7346H110.239L110.761 17.2784ZM112.481 12.4752L113.416 15.1268H111.523L112.481 12.4752ZM30.9931 17.6697C32.016 16.7786 32.4513 15.5832 32.4513 14.2139C32.4513 12.8664 32.016 11.6711 30.9931 10.78C29.8831 9.84539 28.4684 9.54112 27.0536 9.54112C25.6389 9.54112 24.2025 9.84539 23.1142 10.78C22.0913 11.6928 21.656 12.8882 21.656 14.2139C21.656 15.5615 22.0913 16.7568 23.1142 17.6479C24.2025 18.6042 25.6389 18.9085 27.0536 18.9085C28.4684 18.9085 29.8831 18.6042 30.9931 17.6697ZM25.0948 12.9968C25.2036 12.7143 25.356 12.4317 25.5736 12.2144C25.7695 12.0188 25.9872 11.8449 26.2484 11.758C26.5095 11.6711 26.7925 11.6276 27.0536 11.6276C27.3366 11.6276 27.6195 11.6928 27.8807 11.7797C28.1419 11.8667 28.3595 12.0188 28.5554 12.2144C28.7731 12.4317 28.9037 12.7143 29.0125 12.9968C29.1648 13.388 29.2084 13.8227 29.2084 14.2139C29.2084 14.6052 29.1648 15.0616 29.0342 15.4311C28.9254 15.7136 28.7731 15.9961 28.5554 16.2135C28.3595 16.4091 28.1419 16.5612 27.8807 16.6482C27.6195 16.7568 27.3366 16.8003 27.0536 16.8003C26.7707 16.8003 26.5095 16.7568 26.2484 16.6699C25.9872 16.583 25.7478 16.4308 25.5519 16.2352C25.3342 15.9961 25.1819 15.7353 25.0731 15.4311C24.9425 15.0616 24.8989 14.6269 24.8989 14.2139C24.8989 13.8227 24.9425 13.388 25.0948 12.9968ZM38.8284 11.8449H41.0267V18.7346H44.2043V9.71499H35.8684V9.95406L35.8031 11.5841C35.8031 11.9971 35.7813 12.4317 35.7596 12.8447C35.7378 13.3011 35.6943 13.7358 35.629 14.1922C35.6072 14.5182 35.5419 14.8442 35.4766 15.1485C35.3896 15.5615 35.1937 15.9744 34.8672 16.2135C34.7802 16.2787 34.6496 16.3221 34.5407 16.3221C34.4102 16.3439 34.2578 16.3656 34.1272 16.3656H33.9749H33.8443H33.8225H33.4743V18.7129L33.6919 18.7346C33.779 18.7455 33.866 18.7509 33.9531 18.7564C34.0402 18.7618 34.1272 18.7672 34.2143 18.7781C34.334 18.7781 34.4591 18.7835 34.5843 18.789C34.7094 18.7944 34.8346 18.7998 34.9543 18.7998C35.3243 18.7998 35.6943 18.7346 36.0425 18.626C36.3908 18.5173 36.7172 18.3652 36.9784 18.1478C37.1257 18.0334 37.2607 17.8944 37.3926 17.7586C37.4361 17.7138 37.4793 17.6693 37.5225 17.6262C37.7402 17.3437 37.9143 17.0176 38.0449 16.6916C38.2408 16.2569 38.3713 15.7788 38.4802 15.3224C38.6108 14.6704 38.6978 14.0183 38.7413 13.3663C38.7631 13.0838 38.7849 12.8012 38.7849 12.5404C38.8066 12.3013 38.8284 12.0623 38.8284 11.8449ZM55.5438 17.6697C56.5667 16.7786 57.002 15.5832 57.002 14.2139C57.002 12.8664 56.5667 11.6711 55.5438 10.78C54.4338 9.84539 53.0191 9.54112 51.6043 9.54112C50.1896 9.54112 48.7532 9.84539 47.6649 10.78C46.642 11.6928 46.2067 12.8882 46.2067 14.2139C46.2067 15.5615 46.642 16.7568 47.6649 17.6479C48.7532 18.6042 50.1896 18.9085 51.6043 18.9085C53.0191 18.9085 54.4338 18.6042 55.5438 17.6697ZM49.6455 12.9968C49.7543 12.7143 49.9067 12.4317 50.1243 12.2144C50.3202 12.0188 50.5379 11.8449 50.799 11.758C51.0602 11.6711 51.3432 11.6276 51.6043 11.6276C51.8873 11.6276 52.1485 11.6928 52.4314 11.7797C52.6926 11.8667 52.9102 12.0188 53.1061 12.2144C53.3238 12.4317 53.4544 12.7143 53.5632 12.9968C53.7155 13.388 53.7591 13.8227 53.7591 14.2139C53.7591 14.6052 53.7155 15.0616 53.5849 15.4311C53.4761 15.7136 53.3238 15.9961 53.1061 16.2135C52.9102 16.4091 52.6926 16.5612 52.4314 16.6482C52.1702 16.7568 51.8873 16.8003 51.6043 16.8003C51.3214 16.8003 51.0602 16.7568 50.799 16.6699C50.5379 16.583 50.2985 16.4308 50.1026 16.2352C49.8849 15.9961 49.7326 15.7353 49.6238 15.4311C49.4932 15.0616 49.4496 14.6269 49.4496 14.2139C49.4496 13.8227 49.4932 13.388 49.6455 12.9968ZM65.4468 18.4956L66.9703 14.4965V18.7346H70.1262V9.71499H66.6221L64.4456 15.0398L62.2473 9.71499H58.765V18.7346H61.7685V14.4965L63.292 18.4956H65.4468ZM75.9156 12.9099V11.8449H80.9868V9.71499H72.7597V18.7346H77.3739C77.9615 18.7346 78.5927 18.6912 79.1586 18.5608C79.6592 18.4521 80.138 18.2565 80.5733 17.9739C80.9433 17.7349 81.248 17.4089 81.4657 17.0394C81.6833 16.6482 81.7921 16.2135 81.7921 15.7571C81.7921 15.3224 81.7051 14.9094 81.5092 14.5182C81.3133 14.1053 81.0086 13.801 80.6168 13.5619C80.1815 13.2794 79.6809 13.1055 79.1586 13.0186C78.5927 12.9316 78.0051 12.9099 77.4174 12.9099H75.9156ZM78.3315 15.2572C78.3968 15.3224 78.4621 15.4093 78.4839 15.4963C78.5274 15.6049 78.5492 15.7136 78.5492 15.8223C78.5492 16.0831 78.4186 16.2787 78.1792 16.4091C77.8527 16.6047 77.3956 16.6482 77.0256 16.6482H75.9156V14.9746H77.0256C77.2868 14.9746 77.6133 14.9964 77.8962 15.0616C78.0268 15.105 78.2009 15.1702 78.3315 15.2572Z" fill="white"/>
<path fill-rule="evenodd" clip-rule="evenodd" d="M0 59.9211H129V24.0381H0V59.9211ZM62.3997 47.5761C64.7286 45.4462 65.6427 42.6425 65.6427 39.5345C65.6427 36.4482 64.7286 33.6228 62.3997 31.5146C59.9839 29.3195 56.828 28.6022 53.6285 28.6022C50.4291 28.6022 47.2514 29.3195 44.8355 31.5363C42.5285 33.6445 41.6144 36.4482 41.6144 39.5345C41.6144 42.6207 42.5502 45.4027 44.8355 47.5326C47.2514 49.7495 50.4073 50.4885 53.6285 50.4885C56.828 50.4885 59.9839 49.7495 62.3997 47.5761ZM25.9872 49.9016L29.6655 40.23V50.4667H37.3049V28.6022H28.8384L23.5496 40.7516L18.239 28.6022H9.79421V50.4667H17.0854V40.23L20.7637 49.9016H25.9872ZM107.301 34.014H112.045V50.0755H119.184V29.0152H100.641L100.619 29.5803C100.553 30.8626 100.51 32.1232 100.488 33.4055C100.467 34.3438 100.426 35.2622 100.385 36.199L100.379 36.3178C100.314 37.3611 100.227 38.426 100.096 39.4475C100.009 40.2082 99.9005 40.9689 99.7481 41.7296C99.5305 42.6425 99.1605 43.577 98.3987 44.1856C98.2246 44.316 97.9417 44.3812 97.724 44.4247C97.6698 44.433 97.614 44.4421 97.557 44.4514C97.3167 44.4907 97.0562 44.5333 96.8099 44.5333C96.7555 44.5333 96.7011 44.5279 96.6467 44.5225C96.5923 44.517 96.5378 44.5116 96.4834 44.5116C96.429 44.5116 96.3746 44.5062 96.3202 44.5007C96.2658 44.4953 96.2114 44.4899 96.157 44.4899H96.1352H95.2864V50.0103L95.8305 50.0755C96.0742 50.1042 96.3369 50.1139 96.5935 50.1235C96.7264 50.1284 96.8578 50.1333 96.984 50.1407C97.5281 50.1842 98.094 50.2059 98.6599 50.2059C99.487 50.2059 100.292 50.0538 101.098 49.8147C101.859 49.5539 102.578 49.2062 103.187 48.6845C103.622 48.3368 104.014 47.8804 104.362 47.4457C104.863 46.7937 105.255 46.033 105.559 45.294C105.995 44.2942 106.278 43.1641 106.495 42.0991C106.822 40.5995 106.974 39.0563 107.083 37.5349C107.105 37.2089 107.126 36.8884 107.148 36.5678C107.17 36.2472 107.192 35.9266 107.213 35.6006L107.216 35.5409C107.237 35.0376 107.259 34.5158 107.301 34.014ZM79.7028 34.014H84.4693V50.0755H91.6081V29.0152H73.0427L73.021 29.5803L73.0168 29.7036C72.9747 30.9434 72.9332 32.1643 72.9121 33.4055C72.8904 34.3835 72.8468 35.3398 72.7816 36.3178C72.7163 37.3611 72.6292 38.426 72.5204 39.4475C72.4333 40.2082 72.3245 40.9689 72.1504 41.7296C71.9545 42.6425 71.5627 43.577 70.801 44.1856C70.6268 44.316 70.3439 44.3812 70.148 44.4247C70.0752 44.435 70.0012 44.4467 69.9268 44.4583C69.6898 44.4955 69.4493 44.5333 69.2339 44.5333C69.1795 44.5333 69.1196 44.5279 69.0598 44.5225C68.9999 44.517 68.9401 44.5116 68.8857 44.5116C68.8312 44.5116 68.7823 44.5062 68.7333 44.5007C68.6843 44.4953 68.6354 44.4899 68.5809 44.4899H68.5592H67.7104V50.0103L68.2327 50.0755C68.4765 50.1042 68.7391 50.1139 68.9957 50.1235C69.1287 50.1284 69.26 50.1333 69.3862 50.1407C69.9521 50.1842 70.518 50.2059 71.0621 50.2059C71.8892 50.2059 72.7163 50.0538 73.4998 49.8147C74.2616 49.5539 74.9798 49.2062 75.611 48.6845C76.0463 48.3368 76.438 47.8804 76.7863 47.4457C77.2651 46.7937 77.6569 46.033 77.9833 45.294C78.4186 44.2942 78.7016 43.1641 78.9192 42.0991C79.2239 40.5995 79.3981 39.0563 79.5069 37.5349L79.5146 37.4193C79.5555 36.8082 79.5952 36.214 79.6157 35.6006C79.6576 35.099 79.6793 34.5774 79.7002 34.0742L79.7028 34.014ZM49.3409 36.6873C49.5585 36.0353 49.9067 35.3615 50.3856 34.8617C50.7991 34.427 51.2997 34.0358 51.8656 33.8402C52.4315 33.6228 53.0409 33.5359 53.6503 33.5359C54.2597 33.5359 54.8474 33.6445 55.4132 33.8619C56.0009 34.0792 56.4797 34.427 56.8932 34.8617C57.3938 35.3833 57.6985 36.057 57.938 36.7091C58.2427 37.6001 58.3515 38.5999 58.3515 39.5345C58.3515 40.4256 58.2862 41.4906 57.9597 42.3599C57.7203 43.0119 57.3938 43.6422 56.915 44.1856C56.5015 44.642 56.0227 44.968 55.4568 45.1853C54.8691 45.4244 54.2597 45.5331 53.6503 45.5331C53.0191 45.5331 52.4315 45.4244 51.8438 45.2071C51.2779 45.0115 50.7773 44.642 50.3638 44.1856C49.885 43.664 49.5367 43.0337 49.3191 42.3816C48.9926 41.4906 48.9273 40.469 48.9273 39.5345C48.9273 38.5999 49.0144 37.6001 49.3409 36.6873Z" fill="white"/>
</svg>

<svg width="129" height="60" fill="none" xmlns="http://www.w3.org/2000/svg"><path fill-rule="evenodd" clip-rule="evenodd" d="M0 21.886h129V0H0v21.886zm12.166-4.216c1.132.934 2.547 1.238 3.962 1.238.413 0 .849-.021 1.24-.065l.98-.195c.26-.066.544-.152.805-.24.12-.043.234-.086.348-.13.114-.043.229-.087.348-.13l.131-.044v-2.39h-.522l-.044.043a8.322 8.322 0 01-.24.163 8.956 8.956 0 00-.239.163 5.38 5.38 0 01-.609.348 4.26 4.26 0 01-.696.275l-.088.03c-.304.086-.63.13-.957.13-.327 0-.653-.044-.958-.153a2.479 2.479 0 01-.87-.413c-.283-.217-.48-.5-.632-.825-.195-.37-.26-.826-.26-1.261 0-.413.065-.848.239-1.217.152-.326.348-.609.609-.826.261-.196.544-.37.849-.478a3.96 3.96 0 011.001-.13c.305 0 .61.043.892.13a4.703 4.703 0 011.437.652c.174.108.326.217.479.326l.065.043h.544v-2.412l-.13-.044a4.536 4.536 0 00-.697-.26 6.053 6.053 0 00-.827-.261 7.964 7.964 0 00-1.001-.152 10.652 10.652 0 00-1.175-.066c-1.437 0-2.873.326-3.983 1.261-1.045.913-1.48 2.086-1.48 3.434 0 1.37.413 2.586 1.48 3.456zm88.235-5.825h2.177v6.89h3.177v-9.02h-8.314l-.022.24a40.254 40.254 0 00-.043 1.63l-.033.632c-.01.21-.022.422-.033.628a25.6 25.6 0 01-.098 1.237l-.01.11a6.752 6.752 0 01-.174.957c-.088.413-.262.825-.61 1.065a.578.578 0 01-.305.108l-.05.008c-.132.019-.25.036-.385.036h-.652v2.347l.217.022c.087.01.174.016.261.021.087.006.174.011.261.022.13 0 .256.006.381.011.125.005.25.01.38.01.37 0 .72-.064 1.09-.173.326-.109.652-.26.935-.478a3.9 3.9 0 00.522-.522c.218-.282.392-.608.545-.934.186-.413.293-.865.397-1.3l.016-.07c.152-.652.218-1.304.261-1.956.022-.282.044-.565.066-.826 0-.239.021-.478.043-.695zM86.45 17.278h3.417l.522 1.457h3.613l-3.983-9.02h-3.635l-3.983 9.02h3.526l.523-1.457zm1.72-4.803l.935 2.652h-1.893l.957-2.652zm22.591 4.803h3.417l.523 1.457h3.612l-3.961-9.02h-3.656l-3.983 9.02h3.526l.522-1.457zm1.72-4.803l.935 2.652h-1.893l.958-2.652zM30.993 17.67c1.023-.891 1.458-2.087 1.458-3.456 0-1.348-.435-2.543-1.458-3.434-1.11-.935-2.525-1.239-3.94-1.239-1.414 0-2.85.304-3.939 1.239-1.023.913-1.458 2.108-1.458 3.434 0 1.348.435 2.543 1.458 3.434 1.088.956 2.525 1.26 3.94 1.26 1.414 0 2.83-.304 3.94-1.238zm-5.898-4.673c.109-.283.261-.565.479-.783.195-.195.413-.37.674-.456.261-.087.544-.13.806-.13.283 0 .566.065.827.152.26.087.479.239.674.434.218.218.349.5.457.783.153.391.196.826.196 1.217 0 .391-.043.848-.174 1.217-.109.283-.26.565-.479.783a1.719 1.719 0 01-.674.434 2.15 2.15 0 01-.827.152c-.283 0-.544-.043-.806-.13-.26-.087-.5-.24-.696-.435-.218-.239-.37-.5-.479-.804-.13-.37-.174-.804-.174-1.217 0-.391.043-.826.196-1.217zm13.733-1.152h2.199v6.89h3.177v-9.02h-8.336v.24l-.065 1.63c0 .412-.022.847-.043 1.26-.022.456-.066.89-.131 1.347a6.748 6.748 0 01-.152.957c-.087.413-.283.825-.61 1.065a.587.587 0 01-.326.108 2.66 2.66 0 01-.414.044h-.653v2.347l.218.022c.087.01.174.016.261.021.087.006.174.011.261.022.12 0 .245.006.37.011.125.005.25.01.37.01.37 0 .74-.064 1.088-.173.349-.109.675-.26.936-.478.148-.115.283-.254.415-.39.043-.044.086-.089.13-.132.217-.282.391-.608.522-.934.196-.435.326-.913.435-1.37.13-.652.218-1.304.261-1.956.022-.282.044-.565.044-.826.022-.239.043-.478.043-.695zm16.716 5.825c1.023-.891 1.458-2.087 1.458-3.456 0-1.348-.435-2.543-1.458-3.434-1.11-.935-2.525-1.239-3.94-1.239-1.414 0-2.85.304-3.94 1.239-1.022.913-1.457 2.108-1.457 3.434 0 1.348.435 2.543 1.458 3.434 1.088.956 2.525 1.26 3.94 1.26 1.414 0 2.829-.304 3.939-1.238zm-5.898-4.673a2.22 2.22 0 01.478-.783c.196-.195.414-.37.675-.456.261-.087.544-.13.805-.13.283 0 .544.065.827.152.262.087.48.239.675.434.218.218.348.5.457.783.152.391.196.826.196 1.217 0 .391-.044.848-.174 1.217-.109.283-.261.565-.479.783a1.719 1.719 0 01-.675.434 2.15 2.15 0 01-.827.152c-.283 0-.544-.043-.805-.13-.261-.087-.5-.24-.696-.435-.218-.239-.37-.5-.48-.804-.13-.37-.173-.804-.173-1.217 0-.391.043-.826.195-1.217zm15.8 5.499l1.524-4v4.239h3.156v-9.02h-3.504l-2.176 5.325-2.199-5.325h-3.482v9.02h3.004v-4.239l1.523 4h2.155zm10.47-5.586v-1.065h5.07v-2.13H72.76v9.02h4.614c.588 0 1.219-.044 1.785-.174.5-.109.979-.305 1.414-.587.37-.24.675-.565.893-.935.217-.39.326-.826.326-1.282a2.72 2.72 0 00-.283-1.239c-.196-.413-.5-.717-.892-.956a3.818 3.818 0 00-1.458-.543 11.52 11.52 0 00-1.742-.11h-1.501zm2.416 2.347c.065.065.13.152.152.24a.871.871 0 01.065.325c0 .261-.13.457-.37.587-.326.196-.783.24-1.153.24h-1.11v-1.674h1.11c.26 0 .587.021.87.087.13.043.305.108.436.195zM0 59.921h129V24.038H0v35.883zm62.4-12.345c2.329-2.13 3.243-4.934 3.243-8.041 0-3.087-.914-5.912-3.243-8.02-2.416-2.195-5.572-2.913-8.771-2.913-3.2 0-6.378.718-8.793 2.934-2.307 2.108-3.222 4.912-3.222 7.998 0 3.087.936 5.869 3.222 7.999 2.415 2.216 5.571 2.956 8.793 2.956 3.199 0 6.355-.74 8.77-2.913zm-36.413 2.326l3.679-9.672v10.237h7.639V28.602h-8.467l-5.288 12.15-5.311-12.15H9.794v21.865h7.291V40.23l3.679 9.672h5.223zm81.314-15.888h4.744v16.061h7.139v-21.06h-18.543l-.022.565a111.053 111.053 0 00-.131 3.826c-.021.938-.062 1.856-.103 2.793l-.006.119a48.637 48.637 0 01-.283 3.13c-.087.76-.196 1.52-.348 2.282-.218.913-.588 1.847-1.35 2.456-.173.13-.456.195-.674.239l-.167.026c-.24.04-.5.082-.747.082-.055 0-.109-.005-.163-.01a1.628 1.628 0 00-.164-.011c-.054 0-.108-.006-.163-.011a1.487 1.487 0 00-.163-.011h-.871v5.52l.544.066c.244.028.507.038.764.047.132.005.264.01.39.018.544.043 1.11.065 1.676.065.827 0 1.632-.152 2.438-.391.761-.261 1.48-.609 2.089-1.13.435-.348.827-.805 1.175-1.24.501-.651.893-1.412 1.197-2.151.436-1 .719-2.13.936-3.195.327-1.5.479-3.043.588-4.564l.065-.967.065-.967.003-.06a37.09 37.09 0 01.085-1.527zm-27.598 0h4.766v16.061h7.14v-21.06H73.042l-.022.565-.004.124c-.042 1.24-.084 2.46-.105 3.702a65.196 65.196 0 01-.13 2.912 72.806 72.806 0 01-.262 3.13 20.6 20.6 0 01-.37 2.282c-.196.913-.587 1.847-1.349 2.456-.174.13-.457.195-.653.239l-.221.033a4.577 4.577 0 01-.693.075c-.054 0-.114-.005-.174-.01a1.806 1.806 0 00-.174-.011c-.055 0-.104-.006-.153-.011a1.22 1.22 0 00-.152-.011h-.871v5.52l.523.066c.243.028.506.038.763.047.133.005.264.01.39.018.566.043 1.132.065 1.676.065.827 0 1.654-.152 2.438-.391.762-.261 1.48-.609 2.111-1.13.435-.348.827-.805 1.175-1.24.48-.651.87-1.412 1.197-2.151.436-1 .719-2.13.936-3.195.305-1.5.48-3.043.588-4.564l.008-.116c.04-.61.08-1.205.1-1.818a37 37 0 00.085-1.527l.003-.06zM49.34 36.687c.218-.652.566-1.325 1.045-1.825.413-.435.914-.826 1.48-1.022a4.978 4.978 0 011.784-.304c.61 0 1.197.108 1.763.326a3.881 3.881 0 011.48 1c.5.521.806 1.195 1.045 1.847.305.891.413 1.89.413 2.825 0 .892-.065 1.957-.391 2.826-.24.652-.566 1.282-1.045 1.826a3.73 3.73 0 01-1.458 1 4.767 4.767 0 01-1.807.347 5.111 5.111 0 01-1.806-.326c-.566-.196-1.067-.565-1.48-1.021a5.025 5.025 0 01-1.045-1.804c-.326-.891-.392-1.913-.392-2.847 0-.935.087-1.935.414-2.848z" fill="#fff"/></svg>
